X:1
T:Title
%%score { ( 1 3 ) | 2 }
L:1/8
M:6/8
K:D
V:1 treble nm="Grand Piano"
V:3 treble 
V:2 bass 
V:1
 z3 z2[Q:1/4=93] [FA] | [FA]2 [FB] [DF]2 [CE] | D2 E F2 [FA] | [Fd][Fd][Fd] [Ac]2 [GB] | %4
[M:5/8] [FA]-[FA]- [FA]3 |[M:1/8] [FA] |[M:3/4] [Gc]2 [GB] [FA]2 [EG] | [DF]2 [GB] [FA]2 [FB] | %8
 cB A B2 ^G |[M:5/8] [CA]-[CA]- [CA]3 |[M:1/8] [CE] |[M:3/4] [CE]2 [DF] [EG]2 [CE] | F2 G A2 A | %13
 [CA]2 [CE] [CE]2 [CEG] |[M:5/8] [GB]2 [FA] [FA]2 |[M:1/8] [FA] |[M:3/4] [Fd]2 [Ac] [GB]2 [FA] | %17
 [GB]2 [GB] [^Ge]2 [Gd] | cB A [GB]2 [Gc] |[M:5/8] [Fd]-[Fd]- [Fd]3 |[M:1/8] [FA] | %21
[M:3/4] [Fd][Fd] [Fd] [Ac]2 [GB] | [FA]6 | [DGB][DGB] [DGB] [E^Ge]2 [EGd] | %24
[M:5/8] [Ac]-[Ac]- [Ac]3 |[M:1/8] [FA] |[M:3/4] [Fd]2 [Ac] [GB]2 [FA] | [GB]2 [GB] [^Ge]2 [Gd] | %28
 cB A [GB]2 [Gc] |[M:13/8] [Fd]-[Fd]- [Fd]3 z z z z z z z2 |] %30
V:2
 z3 z2 [D,D] | [D,D]2 [D,D] [D,A,]2 [A,,G,] | [D,F,]2 [D,G,D] [D,A,D]2 [D,D] | %3
 [D,D][D,D][D,D] [G,D]2 [G,D] |[M:5/8] [D,D]-[D,D]- [D,D]3 |[M:1/8] [D,A,] | %6
[M:3/4] [A,,A,]2 [A,,A,] [A,,A,]2 [A,,A,] | [D,A,]2 [D,D] [D,D]2 [D,D] | %8
 [E,A,E][E,^G,D] [E,A,C] [E,G,D]2 [E,B,D] |[M:5/8] [A,,A,]-[A,,A,]- [A,,A,]3 |[M:1/8] [A,,A,] | %11
[M:3/4] [A,,A,]2 [A,,A,] [A,,A,]2 [A,,A,] | [D,A,D]2 [E,A,C] [F,A,D]2 [D,F,D] | %13
 [A,,E,]2 [A,,A,] [A,,A,]2 A,, |[M:5/8] [D,D]2 [D,D] [D,D]2 |[M:1/8] [D,D] | %16
[M:3/4] [D,D]2 [D,D] [D,D]2 [D,D] | [G,D]2 [G,D] [E,E]2 [E,E] | %18
 [A,EA][A,DA][K:bass] [A,C] [A,,A,]2 [A,,A,] |[M:5/8] [D,A,]-[D,A,]- [D,A,]3 |[M:1/8] [D,D] | %21
[M:3/4] [D,D][D,D] [D,D] [D,D]2 [D,D] | [D,D]2 D, D,2 D, | G,G, G, E,2 E, |[M:5/8] A,2 A, A,2 | %25
[M:1/8] [D,D] |[M:3/4] [D,D]2 [D,D] [D,D]2 [D,D] | [G,D]2 [G,D] [E,E]2 [E,E] | %28
 [A,EA][A,DA][K:bass] [A,C] [A,,A,]2 [A,,A,] |[M:13/8] [D,A,]-[D,A,]- [D,A,]3 z z z z z z z2 |] %30
V:3
 x6 | x6 | x6 | x6 |[M:5/8] x5 |[M:1/8] x |[M:3/4] x6 | x6 | x6 |[M:5/8] x5 |[M:1/8] x | %11
[M:3/4] x6 | x6 | x6 |[M:5/8] x5 |[M:1/8] x |[M:3/4] x6 | x6 | x6 |[M:5/8] x5 |[M:1/8] x | %21
[M:3/4] x6 | z2 D D2 [DFA] | x6 |[M:5/8] E2 E E2 |[M:1/8] x |[M:3/4] x6 | x6 | x6 |[M:13/8] x13 |] %30

